icons/paste-with-attribute-32.svg

<?xml version="1.0" encoding="UTF-8"?><svg id="icons" xmlns="http://www.w3.org/2000/svg" viewBox="0 0 32 32"><defs><style>.cls-1{fill:none;}.cls-1,.cls-2{stroke-width:0px;}</style></defs><path class="cls-2" d="M23,4v-2h-4.05042c-.23169-1.14111-1.24011-2-2.44958-2s-2.2179.85889-2.44958,2h-4.05042v2h-4v10h1V5h3v2h13v-2h3v22h-6v1h7V4h-4ZM22,6h-11v-3h4.0921c-.05603-.15717-.0921-.32385-.0921-.5,0-.82715.67285-1.5,1.5-1.5s1.5.67285,1.5,1.5c0,.17615-.03607.34283-.0921.5h4.0921v3ZM2,30h17v-15H2v15ZM3,16h15v13H3v-13ZM5,25h1v1h-1v-1ZM5,19h1v1h-1v-1ZM5,22h1v1h-1v-1ZM7,25h9v1H7v-1ZM7,22h9v1H7v-1ZM7,19h9v1H7v-1Z"/><rect class="cls-1" width="32" height="32"/></svg>

<svg xmlns="http://www.w3.org/2000/svg" viewBox="0 0 32 32"><path d="M23 4V2h-4.05a2.5 2.5 0 0 0-4.9 0H10v2H6v10h1V5h3v2h13V5h3v22h-6v1h7V4h-4zm-1 2H11V3h4.092A1.483 1.483 0 0 1 15 2.5c0-.827.673-1.5 1.5-1.5s1.5.673 1.5 1.5c0 .176-.036.343-.092.5H22v3zM2 30h17V15H2v15zm1-14h15v13H3V16zm2 9h1v1H5v-1zm0-6h1v1H5v-1zm0 3h1v1H5v-1zm2 3h9v1H7v-1zm0-3h9v1H7v-1zm0-3h9v1H7v-1z" stroke-width="0"/><path stroke-width="0" fill="none" d="M0 0h32v32H0z"/></svg>
